__todo__/signal.svg

<svg height="256" preserveAspectRatio="xMidYMid" viewBox="0 0 256 256" width="256" xmlns="http://www.w3.org/2000/svg"><path d="m97.2800192 3.739673 2.8800018 11.6390974c-11.3293579 2.7860001-22.1720356 7.2697175-32.1600187 13.2989687l-6.1600035-10.2792028c11.0067385-6.6448334 22.9551815-11.58700298 35.4400204-14.6588633zm61.4400358 0-2.880002 11.6390974c11.329358 2.7860001 22.172036 7.2697175 32.160019 13.2989687l6.200003-10.2792028c-11.019143-6.6485389-22.981336-11.59081752-35.48002-14.6588633zm-140.3200814 58.0954949c-6.6453524 11.0058787-11.58790813 22.9533883-14.66000844 35.4372519l11.64000674 2.8797772c2.7862177-11.3284732 7.2702854-22.170304 13.3000077-32.1575068zm-6.4000037 66.1548701c-.0038655-5.817313.4306986-11.626646 1.3000008-17.378653l-11.86000687-1.79986c-1.91990244 12.713613-1.91990244 25.643412 0 38.357026l11.86000687-1.799861c-.8693022-5.752006-1.3038663-11.561339-1.3000008-17.378652zm182.1601051 109.591501-6.160003-10.279203c-9.975578 6.025549-20.804507 10.509158-32.120019 13.298969l2.880002 11.639098c12.470993-3.075671 24.405687-8.017732 35.40002-14.658864zm49.840029-109.591501c.003866 5.817313-.430698 11.626646-1.300001 17.378652l11.860007 1.799861c1.919903-12.713614 1.919903-25.643413 0-38.357026l-11.860007 1.79986c.869303 5.752007 1.303867 11.56134 1.300001 17.378653zm8.260005 30.717618-11.640007-2.879777c-2.786218 11.328473-7.270285 22.170304-13.300008 32.157506l10.280006 6.19952c6.649059-11.018283 11.591723-22.979541 14.660009-35.477249zm-106.880062 83.993486c-11.521838 1.733328-23.238182 1.733328-34.76002 0l-1.800001 11.859081c12.714606 1.919752 25.645416 1.919752 38.360022 0zm76.000044-45.896441c-6.918612 9.36944-15.204214 17.647653-24.580014 24.558096l7.120004 9.659251c10.342877-7.604037 19.484863-16.718343 27.120016-27.037903zm-24.580014-162.1874225c9.377268 6.9165273 17.662946 15.2015582 24.580014 24.5780941l9.660006-7.1994417c-7.610813-10.3136835-16.725527-19.4276857-27.040016-27.0379033zm-162.180094 24.5780941c6.9170676-9.3765359 15.2027458-17.6615668 24.5800142-24.5780941l-7.2000041-9.6592509c-10.3144893 7.6102176-19.4292035 16.7242198-27.0400157 27.0379033zm202.980117 2.6397953-10.280006 6.1595223c6.02602 9.9747988 10.509979 20.8028816 13.300008 32.1175098l11.640007-2.8797771c-3.075911-12.4700186-8.018358-24.4037806-14.660009-35.397255zm-126.980073-48.5362362c11.521838-1.7333282 23.238182-1.7333282 34.76002 0l1.800001-11.85908036c-12.714606-1.91975245-25.645416-1.91975245-38.360022 0zm-69.8400404 220.9028693-24.7800144 5.779552 5.7800034-24.778078-11.6800068-2.739788-5.7800033 24.778079c-.9465211 4.041614.26323782 8.285331 3.19863375 11.220498 2.93539595 2.935166 7.17944485 4.144831 11.22137455 3.198384l24.7600143-5.67956zm-28.1800163-32.437484 11.6800067 2.719789 4.0000023-17.178668c-5.8303109-9.798292-10.1774596-20.405854-12.9000074-31.477559l-11.64000674 2.879777c2.60941102 10.604235 6.57544954 20.827749 11.80000684 30.417641zm56.0000324 25.997984-17.18001 3.99969 2.7200016 11.679094 12.6400073-2.939772c9.5906412 5.224149 19.8149541 9.189878 30.4200176 11.799085l2.8800018-11.639098c-11.0493175-2.754868-21.6304526-7.128511-31.4000183-12.978993zm59.4000343-203.7642345c-37.8435126.0196338-72.6895128 20.5925645-90.984927 53.7171505s-17.1522469 73.571995 2.9848761 105.61053l-10.0000058 42.656692 42.6600247-9.999225c37.417927 23.565308 85.647232 20.89354 120.232846-6.660561 34.585613-27.554101 47.96342-73.964262 33.350093-115.6978252-14.613328-41.7335632-54.021753-69.6631076-98.242907-69.6267613z" fill="#3a76f0"/></svg>

<?xml version="1.0" encoding="UTF-8"?>
<svg width="256px" height="256px" viewBox="0 0 256 256" version="1.1" xmlns="http://www.w3.org/2000/svg" xmlns:xlink="http://www.w3.org/1999/xlink" preserveAspectRatio="xMidYMid">
    <g>
        <path d="M97.2800192,3.739673 L100.160021,15.3787704 C88.8306631,18.1647705 77.9879854,22.6484879 68.0000023,28.6777391 L61.8399988,18.3985363 C72.8467373,11.7537029 84.7951803,6.81153332 97.2800192,3.739673 Z M158.720055,3.739673 L155.840053,15.3787704 C167.169411,18.1647705 178.012089,22.6484879 188.000072,28.6777391 L194.200075,18.3985363 C183.180932,11.7499974 171.218739,6.80771878 158.720055,3.739673 L158.720055,3.739673 Z M18.3999736,61.8351679 C11.7546212,72.8410466 6.81206547,84.7885562 3.73996516,97.2724198 L15.3799719,100.152197 C18.1661896,88.8237238 22.6502573,77.981893 28.6799796,67.9946902 L18.3999736,61.8351679 Z M11.9999699,127.990038 C11.9961044,122.172725 12.4306685,116.363392 13.2999707,110.611385 L1.43996383,108.811525 C-0.479938607,121.525138 -0.479938607,134.454937 1.43996383,147.168551 L13.2999707,145.36869 C12.4306685,139.616684 11.9961044,133.807351 11.9999699,127.990038 L11.9999699,127.990038 Z M194.160075,237.581539 L188.000072,227.302336 C178.024494,233.327885 167.195565,237.811494 155.880053,240.601305 L158.760055,252.240403 C171.231048,249.164732 183.165742,244.222671 194.160075,237.581539 L194.160075,237.581539 Z M244.000104,127.990038 C244.00397,133.807351 243.569406,139.616684 242.700103,145.36869 L254.56011,147.168551 C256.480013,134.454937 256.480013,121.525138 254.56011,108.811525 L242.700103,110.611385 C243.569406,116.363392 244.00397,122.172725 244.000104,127.990038 Z M252.260109,158.707656 L240.620102,155.827879 C237.833884,167.156352 233.349817,177.998183 227.320094,187.985385 L237.6001,194.184905 C244.249159,183.166622 249.191823,171.205364 252.260109,158.707656 L252.260109,158.707656 Z M145.380047,242.701142 C133.858209,244.43447 122.141865,244.43447 110.620027,242.701142 L108.820026,254.560223 C121.534632,256.479975 134.465442,256.479975 147.180048,254.560223 L145.380047,242.701142 Z M221.380091,196.804701 C214.461479,206.174141 206.175877,214.452354 196.800077,221.362797 L203.920081,231.022048 C214.262958,223.418011 223.404944,214.303705 231.040097,203.984145 L221.380091,196.804701 Z M196.800077,34.6172785 C206.177345,41.5338058 214.463023,49.8188367 221.380091,59.1953726 L231.040097,51.9959309 C223.429284,41.6822474 214.31457,32.5682452 204.000081,24.9580276 L196.800077,34.6172785 Z M34.619983,59.1953726 C41.5370506,49.8188367 49.8227288,41.5338058 59.1999972,34.6172785 L51.9999931,24.9580276 C41.6855038,32.5682452 32.5707896,41.6822474 24.9599774,51.9959309 L34.619983,59.1953726 Z M237.6001,61.8351679 L227.320094,67.9946902 C233.346114,77.969489 237.830073,88.7975718 240.620102,100.1122 L252.260109,97.2324229 C249.184198,84.7624043 244.241751,72.8286423 237.6001,61.8351679 L237.6001,61.8351679 Z M110.620027,13.2989317 C122.141865,11.5656035 133.858209,11.5656035 145.380047,13.2989317 L147.180048,1.43985134 C134.465442,-0.479901112 121.534632,-0.479901112 108.820026,1.43985134 L110.620027,13.2989317 Z M40.7799866,234.201801 L15.9999722,239.981353 L21.7799756,215.203275 L10.0999688,212.463487 L4.3199655,237.241566 C3.3734444,241.28318 4.58320332,245.526897 7.51859925,248.462064 C10.4539952,251.39723 14.6980441,252.606895 18.7399738,251.660448 L43.4999881,245.980888 L40.7799866,234.201801 Z M12.5999703,201.764317 L24.279977,204.484106 L28.2799793,187.305438 C22.4496684,177.507146 18.1025197,166.899584 15.3799719,155.827879 L3.73996516,158.707656 C6.34937618,169.311891 10.3154147,179.535405 15.539972,189.125297 L12.5999703,201.764317 Z M68.6000027,227.762301 L51.4199927,231.761991 L54.1399943,243.441085 L66.7800016,240.501313 C76.3706428,245.725462 86.5949557,249.691191 97.2000192,252.300398 L100.080021,240.6613 C89.0307035,237.906432 78.4495684,233.532789 68.6800027,227.682307 L68.6000027,227.762301 Z M128.000037,23.9980665 C90.1565244,24.0177003 55.3105242,44.590631 37.01511,77.715217 C18.7196958,110.839803 19.8628631,151.287212 39.9999861,183.325747 L29.9999803,225.982439 L72.660005,215.983214 C110.077932,239.548522 158.307237,236.876754 192.892851,209.322653 C227.478464,181.768552 240.856271,135.358391 226.242944,93.6248278 C211.629616,51.8912646 172.221191,23.9617202 128.000037,23.9980665 Z" fill="#3A76F0"></path>
    </g>
</svg>
